src/icons/horizontal-rule.svg

<svg width="16" height="16" viewBox="0 0 16 16" fill="none" xmlns="http://www.w3.org/2000/svg">
<path fill-rule="evenodd" clip-rule="evenodd" d="M6.43236 10H7.25503V4H6.43236V6.6109H3.82267V4H3V10H3.82267V7.39371H6.43236V10ZM12.0996 10H13L11.7203 7.37068C11.8513 7.31236 11.9808 7.23561 12.1088 7.14045C12.2367 7.04528 12.351 6.9317 12.4516 6.79969C12.5521 6.66769 12.6328 6.51573 12.6938 6.34382C12.7578 6.17191 12.7898 5.97851 12.7898 5.76362C12.7898 5.55794 12.7623 5.37222 12.7075 5.20645C12.6527 5.03761 12.5795 4.88872 12.4881 4.75979C12.3998 4.62778 12.2962 4.5142 12.1773 4.41903C12.0615 4.32387 11.9412 4.24559 11.8163 4.18419C11.6913 4.12279 11.5664 4.07675 11.4415 4.04605C11.3166 4.01535 11.2023 4 11.0987 4H8.63985V10H9.46252V7.51804H10.9296L12.0996 10ZM11.4186 6.67997C11.3151 6.71681 11.2176 6.73523 11.1261 6.73523H9.46252V4.78741H11.1261C11.2176 4.78741 11.3151 4.80737 11.4186 4.84728C11.5222 4.88718 11.6167 4.94705 11.702 5.02686C11.7904 5.10668 11.8635 5.20798 11.9214 5.33078C11.9793 5.45357 12.0082 5.59785 12.0082 5.76362C12.0082 5.93246 11.9793 6.07828 11.9214 6.20107C11.8635 6.32387 11.7904 6.42517 11.702 6.50499C11.6167 6.58173 11.5222 6.64006 11.4186 6.67997ZM13 12H3V13H13V12Z" fill="white"/>
</svg>

<svg width="16" height="16" xmlns="http://www.w3.org/2000/svg"><path fill-rule="evenodd" clip-rule="evenodd" d="M6.432 10h.823V4h-.823v2.61h-2.61V4H3v6h.823V7.394h2.61V10zm5.668 0h.9l-1.28-2.63c.131-.058.26-.134.389-.23a1.666 1.666 0 0 0 .585-.797c.064-.171.096-.364.096-.58a1.77 1.77 0 0 0-.082-.557 1.644 1.644 0 0 0-.22-.446 1.504 1.504 0 0 0-.31-.341 1.864 1.864 0 0 0-.737-.373A1.446 1.446 0 0 0 11.1 4H8.64v6h.824V7.518h1.467L12.1 10zm-.681-3.32a.874.874 0 0 1-.293.055H9.463V4.787h1.663a.87.87 0 0 1 .576.24.956.956 0 0 1 .306.737c0 .168-.029.314-.087.437a.91.91 0 0 1-.503.479zM13 12H3v1h10v-1z"/></svg>
